X: 15
T:Shaskeen
M:4/4
L:1/8
K:D
D|:DEEE EEFA|BFAF DEFD|(3ABB Bd (3eee ed|(3Bcd AF FEED|
DEEE EEFA|BFAF DEFD|(3ABB Bd (3eee ed|(3Bcd AF FEED:|
|:Be (3eee Be (3eee|dBAF EAde|(3eff fe (3eff fe|dBAF FEED|
Be (3eee Be (3eee|dBAF EAde|(3fff ef defe|dBAF FEED:|

